X: 27241
T: Miss Sarah Drummond Of Perth
R: strathspey
M: 4/4
K: Amixolydian
A2 eA B/^c/d ef|g2 dg Bg dB|A2 eA B/^c/d ef|1 ge dB BA AG:|2 ge dB BA A^g||
a2 ea ca ef|g2 dg Bg eg|1 a2 ea ca ef|ge dB BA A^g:|2 af ge fd ef|ge dB BA AG||

